templates/main/source/images/block-1-3.svg

<?xml version="1.0" encoding="utf-8"?>
<svg width="49px" height="49px" viewbox="0 0 49 49" version="1.1" xmlns:xlink="http://www.w3.org/1999/xlink" xmlns="http://www.w3.org/2000/svg">
  <g id="thumbs-up" transform="translate(0.5 0.5)">
    <path d="M18 36C27.9411 36 36 27.9411 36 18C36 8.05887 27.9411 0 18 0C8.05887 0 0 8.05887 0 18C0 27.9411 8.05887 36 18 36Z" transform="translate(0 12)" id="Oval" fill="#8C0014" fill-opacity="0.14901961" fill-rule="evenodd" stroke="none" />
    <path d="M36.8798 3.79041C48.0075 10.9297 51.2407 25.7383 44.1013 36.866L47.775 46.549C47.8757 46.8093 47.8603 47.1001 47.7326 47.3483C47.4858 47.8282 46.8967 48.0172 46.4169 47.7704L37.9161 43.3539C33.8553 46.3036 28.9627 47.8878 23.9436 47.8779L23.9342 47.8779C10.7132 47.8752 -0.00256397 37.1553 0 23.9342C0.00256581 10.713 10.7226 -0.00268461 23.9437 2.41526e-06C28.5297 -0.00182965 33.0197 1.31383 36.8798 3.79041ZM37.1932 41.4583C37.4929 41.2326 37.8955 41.1984 38.2289 41.3704L45.0686 44.8878L42.0884 37.1297L42.0884 37.1003C41.9608 36.79 42.0013 36.4358 42.1959 36.1623C44.6167 32.5392 45.9062 28.2785 45.9007 23.921C45.8854 11.7792 36.0302 1.9487 23.8884 1.96397C11.7466 1.97924 1.91597 11.8345 1.93124 23.9763C1.9465 36.1181 11.8018 45.9487 23.9437 45.9334C28.7321 45.9388 33.3887 44.3659 37.1932 41.4583ZM36.5678 19.5811C38.9324 19.5518 41.2286 19.7374 42.0982 21.164C42.6063 22.0043 42.5086 23.0791 41.8148 24.3298L36.177 35.0779L36.0793 35.2244L35.9034 35.4492C35.1022 36.5044 34.086 37.5304 31.0179 37.5304L20.4555 37.5304C20.3389 37.5314 20.223 37.5116 20.1135 37.4718L18.5892 36.8953C18.2101 37.3857 17.6261 37.674 17.0063 37.6769L10.2643 37.6769C9.18901 37.6408 8.33026 36.7691 8.31011 35.6934L8.31011 22.6003C8.28812 21.4944 9.15872 20.5759 10.2643 20.5386L17.0258 20.5386C17.3673 20.5333 17.7042 20.6175 18.0029 20.7829C18.4892 20.161 19.1828 19.7345 19.9571 19.5811L20.2405 19.5811C22.2036 16.7083 23.3732 13.3679 23.631 9.89802C23.7298 7.95554 25.2824 6.40281 27.2249 6.30412C29.316 6.19787 31.0973 7.8069 31.2035 9.89802C31.2696 13.2062 30.6887 16.4955 29.4936 19.5811L36.5678 19.5811ZM39.7336 24.1637L40.0658 23.5286C40.4469 22.8153 40.5251 22.4635 40.398 22.2583C40.271 22.0531 39.6652 21.6232 36.5483 21.6232L27.94 21.6232C27.7828 21.6235 27.628 21.586 27.4885 21.5137C27.0093 21.2655 26.8222 20.6758 27.0704 20.1966C28.587 17.0257 29.324 13.5384 29.22 10.025C29.1536 9.11609 28.4308 8.39328 27.5218 8.32684C26.51 8.25295 25.6298 9.01325 25.5559 10.025C25.5559 10.113 25.5266 10.4843 25.4582 11.0901C25.9278 11.2131 26.4094 11.2851 26.8945 11.305C27.4341 11.305 27.8716 11.7425 27.8716 12.2821C27.8716 12.8217 27.4341 13.2592 26.8945 13.2592C26.3016 13.2443 25.7119 13.1657 25.1358 13.0247C24.5549 16.0133 23.2945 18.8282 21.4521 21.2519C21.2678 21.4852 20.9872 21.6219 20.69 21.6232L20.0353 21.6232C19.6507 21.8842 19.3192 22.2157 19.0582 22.6003L19.0582 34.9704L20.6411 35.6055L31.057 35.6055C33.3922 35.6055 33.8515 34.9802 34.3303 34.3157L34.4377 34.1692L32.8548 34.1692C32.3152 34.1692 31.8777 33.7317 31.8777 33.1921C31.8777 32.6525 32.3152 32.215 32.8548 32.215L35.5223 32.215L36.646 30.0849L34.5452 30.0849C34.0056 30.0849 33.5681 29.6474 33.5681 29.1078C33.5681 28.5682 34.0056 28.1307 34.5452 28.1307L37.6231 28.1307L38.737 26.1179L36.1184 26.1179C35.5788 26.1179 35.1413 25.6804 35.1413 25.1408C35.1413 24.6012 35.5788 24.1637 36.1184 24.1637L39.7336 24.1637ZM10.2643 35.7227L17.0356 35.7618L17.104 22.6003L10.2643 22.4928L10.1959 35.6544C10.1946 35.6614 10.1946 35.6688 10.1959 35.6758C10.2019 35.7077 10.2324 35.7287 10.2643 35.7227Z" transform="translate(-9.205305E-07 0.007936516)" id="Combined-Shape" fill="#8C0014" fill-rule="evenodd" stroke="none" />
  </g>
</svg>

<svg width="49" height="49" xmlns:xlink="http://www.w3.org/1999/xlink" xmlns="http://www.w3.org/2000/svg"><g id="thumbs-up" transform="translate(.5 .5)" fill="#8C0014" fill-rule="evenodd" stroke="none"><path d="M18 36c9.941 0 18-8.059 18-18S27.941 0 18 0 0 8.059 0 18s8.059 18 18 18z" transform="translate(0 12)" id="Oval" fill-opacity=".149"/><path d="M36.88 3.79c11.127 7.14 14.36 21.948 7.221 33.076l3.674 9.683a.977.977 0 01-1.358 1.221l-8.5-4.416a23.695 23.695 0 01-13.973 4.524h-.01C10.714 47.875-.003 37.155 0 23.934.003 10.713 10.723-.003 23.944 0A23.938 23.938 0 0136.88 3.79zm.313 37.668a.977.977 0 011.036-.088l6.84 3.518-2.98-7.758v-.03a.977.977 0 01.107-.938A21.984 21.984 0 0045.9 23.921c-.016-12.142-9.87-21.972-22.013-21.957-12.141.015-21.972 9.87-21.957 22.012.015 12.142 9.87 21.973 22.013 21.957a21.78 21.78 0 0013.25-4.475zm-.625-21.877c2.364-.03 4.66.156 5.53 1.583.508.84.41 1.915-.283 3.166l-5.638 10.748-.098.146-.176.225c-.8 1.055-1.817 2.081-4.885 2.081H20.455a.977.977 0 01-.341-.058l-1.525-.577c-.379.49-.963.779-1.583.782h-6.742a2.022 2.022 0 01-1.954-1.984V22.6a2.023 2.023 0 011.954-2.061h6.762c.341-.006.678.078.977.244a3.293 3.293 0 011.954-1.202h.284a19.757 19.757 0 003.39-9.683 3.791 3.791 0 017.572 0 25.405 25.405 0 01-1.71 9.683h7.075zm3.166 4.583l.332-.635c.38-.714.46-1.066.332-1.27-.127-.206-.733-.636-3.85-.636H27.94a.977.977 0 01-.87-1.426 22.061 22.061 0 002.15-10.172 1.837 1.837 0 00-3.664 0c0 .088-.03.46-.098 1.065.47.123.951.195 1.437.215a.977.977 0 010 1.954 8.272 8.272 0 01-1.76-.234 19.855 19.855 0 01-3.683 8.227.977.977 0 01-.762.371h-.655a3.674 3.674 0 00-.977.977v12.37l1.583.636h10.416c2.335 0 2.795-.626 3.273-1.29l.108-.147h-1.583a.977.977 0 010-1.954h2.667l1.124-2.13h-2.1a.977.977 0 010-1.954h3.077l1.114-2.013h-2.619a.977.977 0 010-1.954h3.616zm-29.47 11.559l6.772.039.068-13.162-6.84-.107-.068 13.161a.059.059 0 00.068.068z" transform="translate(0 .008)" id="Combined-Shape"/></g></svg>
